src/assets/outline/Educare.svg

<?xml version="1.0" encoding="UTF-8"?>
<svg width="24" height="24" viewBox="0 0 24 24" xmlns="http://www.w3.org/2000/svg">
 <path d="m12 8.9092c-0.49 0-0.97-0.18001-1.34-0.55001l-2.67-2.67c-0.54-0.54-0.70997-1.35-0.40997-2.07 0.29-0.71 0.98-1.17 1.75-1.17h5.3499c0.77 0 1.46 0.46 1.75 1.17s0.1301 1.52-0.4099 2.07l-2.6701 2.67c-0.38 0.36-0.86 0.55001-1.35 0.55001zm-2.95-4.29 2.67 2.67c0.15 0.15 0.4001 0.15 0.5601 0l2.67-2.67c0.17-0.17 0.12-0.36 0.08-0.43s-0.1301-0.24-0.3601-0.24h-5.35c-0.24 0-0.32999 0.17-0.35999 0.24s-0.08003 0.26 0.08997 0.43z"/>
 <path d="m14.67 21.559h-5.35c-0.77 0-1.46-0.46-1.75-1.17s-0.13002-1.52 0.40998-2.07l2.6701-2.67c0.72-0.72 1.96-0.72 2.68 0l2.6699 2.67c0.54 0.54 0.71 1.36 0.41 2.07-0.28 0.71-0.97 1.17-1.74 1.17zm-5.62-2.18c-0.17 0.17-0.12001 0.36-0.08001 0.43s0.13004 0.24 0.36004 0.24h5.3499c0.24 0 0.33-0.17 0.36-0.24s0.0801-0.26-0.0799-0.43l-2.6701-2.67c-0.15-0.15-0.4-0.15-0.56 0l-2.68 2.67z"/>
 <path d="m5.2301 17.251c-0.06 0-0.12995 0-0.19995-0.01-0.54-0.06-1.01-0.35-1.3-0.81l-2.21-3.48c-0.37-0.58-0.37-1.32 0-1.9l2.21-3.48c0.29-0.45 0.76005-0.75001 1.3-0.81001 0.53-0.06 1.0599 0.13001 1.4399 0.51001l3.48 3.48c0.33003 0.33 0.51993 0.78 0.51993 1.25s-0.1799 0.92-0.51993 1.25l-3.47 3.48c-0.33 0.33-0.78 0.52-1.25 0.52zm-2.44-5.39c-0.06 0.09-0.06 0.2 0 0.29l2.21 3.48c0.06 0.09 0.15001 0.12 0.20001 0.12s0.13997 0 0.21997-0.08l3.48-3.48c0.07-0.07 0.07996-0.15 0.07996-0.19s-0.00996-0.12-0.07996-0.19l-3.48-3.48c-0.08-0.08-0.16997-0.08-0.21997-0.08-0.05 0.01-0.14001 0.03-0.20001 0.12l-2.21 3.49z"/>
 <path d="m18.77 17.251c-0.47 0-0.91-0.18-1.25-0.52l-3.48-3.48c-0.33-0.33-0.52-0.78-0.52-1.25s0.18-0.92 0.52-1.25l3.47-3.48c0.38-0.38 0.91-0.57001 1.44-0.51001 0.54 0.06 1.01 0.35001 1.3 0.81001l2.21 3.48c0.37 0.58 0.37 1.32 0 1.9l-2.21 3.48c-0.29 0.46-0.76 0.75-1.3 0.81-0.05 0-0.12 0.01-0.18 0.01zm0-8.99c-0.05 0-0.12 0.01-0.19 0.08l-3.48 3.48c-0.07 0.07-0.08 0.15-0.08 0.19s0.01 0.12 0.08 0.19l3.48 3.48c0.08 0.08 0.17 0.08 0.22 0.08 0.05-0.01 0.14-0.03 0.2-0.12l2.21-3.48c0.06-0.09 0.06-0.2 0-0.29l-2.21-3.48c-0.06-0.09-0.15-0.11999-0.2-0.11999-0.01-0.01-0.02-0.01001-0.03-0.01001z"/>
</svg>

<svg width="24" height="24" viewBox="0 0 24 24"  xmlns="http://www.w3.org/2000/svg">
<path d="M12.0001 8.90923C11.5101 8.90923 11.0301 8.72922 10.6601 8.35922L7.99013 5.68922C7.45013 5.14922 7.28016 4.33922 7.58016 3.61922C7.87016 2.90922 8.56016 2.44922 9.33016 2.44922H14.6801C15.4501 2.44922 16.1401 2.90922 16.4301 3.61922C16.7201 4.32922 16.5602 5.13922 16.0202 5.68922L13.3501 8.35922C12.9701 8.71922 12.4901 8.90923 12.0001 8.90923ZM9.05013 4.61922L11.7201 7.28922C11.8701 7.43922 12.1202 7.43922 12.2802 7.28922L14.9502 4.61922C15.1202 4.44922 15.0702 4.25922 15.0302 4.18922C14.9902 4.11922 14.9001 3.94922 14.6701 3.94922H9.32015C9.08015 3.94922 8.99016 4.11922 8.96016 4.18922C8.93016 4.25922 8.88013 4.44922 9.05013 4.61922Z" />
<path d="M14.6698 21.5594H9.31985C8.54985 21.5594 7.85985 21.0994 7.56985 20.3894C7.27985 19.6794 7.43983 18.8694 7.97983 18.3194L10.6499 15.6494C11.3699 14.9294 12.6099 14.9294 13.3299 15.6494L15.9998 18.3194C16.5398 18.8594 16.7098 19.6794 16.4098 20.3894C16.1298 21.0994 15.4398 21.5594 14.6698 21.5594ZM9.04983 19.3794C8.87983 19.5494 8.92982 19.7394 8.96982 19.8094C9.00982 19.8794 9.09986 20.0494 9.32986 20.0494H14.6798C14.9198 20.0494 15.0098 19.8794 15.0398 19.8094C15.0698 19.7394 15.1199 19.5494 14.9599 19.3794L12.2898 16.7094C12.1398 16.5594 11.8898 16.5594 11.7298 16.7094L9.04983 19.3794Z" />
<path d="M5.23014 17.2509C5.17014 17.2509 5.10019 17.2509 5.03019 17.2409C4.49019 17.1809 4.02014 16.8909 3.73014 16.4309L1.52018 12.9509C1.15018 12.3709 1.15018 11.6309 1.52018 11.0509L3.73014 7.57092C4.02014 7.12092 4.49019 6.82091 5.03019 6.76091C5.56019 6.70091 6.09013 6.89092 6.47013 7.27092L9.95017 10.7509C10.2802 11.0809 10.4701 11.5309 10.4701 12.0009C10.4701 12.4709 10.2902 12.9209 9.95017 13.2509L6.48014 16.7309C6.15014 17.0609 5.70014 17.2509 5.23014 17.2509ZM2.79013 11.8609C2.73013 11.9509 2.73013 12.0609 2.79013 12.1509L5.00016 15.6309C5.06016 15.7209 5.15017 15.7509 5.20017 15.7509C5.25017 15.7509 5.34014 15.7509 5.42014 15.6709L8.90018 12.1909C8.97018 12.1209 8.98014 12.0409 8.98014 12.0009C8.98014 11.9609 8.97018 11.8809 8.90018 11.8109L5.42014 8.33091C5.34014 8.25091 5.25017 8.25091 5.20017 8.25091C5.15017 8.26091 5.06016 8.28091 5.00016 8.37091L2.79013 11.8609Z" />
<path d="M18.77 17.2509C18.3 17.2509 17.86 17.0709 17.52 16.7309L14.04 13.2509C13.71 12.9209 13.52 12.4709 13.52 12.0009C13.52 11.5309 13.7 11.0809 14.04 10.7509L17.51 7.27092C17.89 6.89092 18.42 6.70091 18.95 6.76091C19.49 6.82091 19.96 7.11092 20.25 7.57092L22.46 11.0509C22.83 11.6309 22.83 12.3709 22.46 12.9509L20.25 16.4309C19.96 16.8909 19.49 17.1809 18.95 17.2409C18.9 17.2409 18.83 17.2509 18.77 17.2509ZM18.77 8.26091C18.72 8.26091 18.65 8.27091 18.58 8.34091L15.1 11.8209C15.03 11.8909 15.02 11.9709 15.02 12.0109C15.02 12.0509 15.03 12.1309 15.1 12.2009L18.58 15.6809C18.66 15.7609 18.75 15.7609 18.8 15.7609C18.85 15.7509 18.94 15.7309 19 15.6409L21.21 12.1609C21.27 12.0709 21.27 11.9609 21.21 11.8709L19 8.39091C18.94 8.30091 18.85 8.27092 18.8 8.27092C18.79 8.26092 18.78 8.26091 18.77 8.26091Z" />
</svg>
